X:1
T:Deh, s' à tanta beltà
T:Constantijn Huygens
T:Deh, s' à tanta beltà
C:Constantijn Huygens
%%score 1 2 { ( 3 5 ) | ( 4 6 ) }
L:1/8
Q:1/4=65
M:4/4
K:Eb
V:1 treble nm="Soprano" snm="S"
V:2 treble transpose=-12 nm="Viola da Gamba" snm="V.Gam."
V:3 treble nm="Harpsichord" snm="Hpschd."
V:5 treble 
V:4 bass 
V:6 bass 
V:1
 z2 GG c4- | ccB(=A G2) B2- | B2 !courtesy!_AG (G4 | ^F2) !fermata!=F2 z2 z F | G2 EB B4 | %5
w: Deh, s'à tan-|* ta bel- tà _ spir-|* to si cru-|* do S'ac-|cop- pia ed hai,|
 z BB=B c2 E2- | E2 EE F4 | G8 :: d2 =B2 e2 dc | c2 c2 z EEF | G2 ^F2 B4- | B2 EE E2 (D2 | %12
w: ed hai di san- gue a-|* ni- ma va-|ga,|A- pri, a- pri col|fer- ro, col fer- ro i-|gnu- do il|_ pet- to i- gnu- do|
 E4) G4- | G2 G2 c4- | c2 B=A B2 G2 | B6 AA | G2 F2 E2 (D2 | G6) FG | E4 D4 | B2 BB c2 d2 | e4 B4 | %21
w: _ Chiu-|* di, chiu-|* di le pia- ghe,|chiu- di le|pia- ghe mie, chiu-|* di le|pia- ghe,|chiu- di le pia- ghe|mie con|
 =B2 c2 c3 (B | c8) :| %23
w: u- na pia- ga.|_|
V:2
 c8 | c2 d2 e4 | d4 e4 | B4 z2 G2 | g2 f2 e4- | e2 d2 c4- | c2 B2 A4 | G8 :: g8 | a4 g2 f2 | e8 | %11
 B2 _G2 F4 | E8 | e2 c6 | g8 | g4 G4 | G8 | G8 | G8 | g4 f4 | e8 | d2 c2 G4 | c8 :| %23
V:3
 [CEGc]4 [EAc]4 | [F=Ac]2 [Fd]2 [GBe]4 | [Bd]4 edfe | [Be]c [FBd]2 z4 | [EGB]4 [B,EG]4 | %5
 [B,EGB]2 [DG]2 [CGc]4 | E2 E2 F2 E2 | D8 :: [DG=B]4 [EGc]4 | [EAc]4 [EGB]2 [DFA]2 | %10
 [CEG]4 [E_GB]4 | [E_GB]4 [B,F]4 | [_G,B,E]4 B,4 | [CEG]4 [C=EG]4 | G4 [GB]4 | [GB]4 G2 [CEA]2 | %16
 [DB]2 [CA]2 [B,G]2 [A,F]2 | [B,EG]4 [=B,DG]4 | [G,B,E]4 [G,=B,D]4 | [DGB]4 [FA]4 | %20
 [EGB]4 [EGe]2 Bc | d2 e2 d4 | [=EGc]8 :| %23
V:4
 C,8 | C,2 D,2 E,4 | D,4 E,4 | B,,4 z2 G,,2 | G,2 F,2 E,4- | E,2 D,2 C,4- | C,2 B,,2 A,,4 | G,,8 :: %8
 G,8 | A,4 G,2 F,2 | E,8 | B,,2 _G,,2 F,,4 | E,4 G,4 | E,2 C,6 | G,8 | G,4 G,,4 | G,,8 | G,,8 | %18
 G,,8 | G,4 F,4 | E,8 | D,2 C,2 G,,4 | C,8 :| %23
V:5
 x8 | x8 | G4 [GB]4 | x8 | x8 | x8 | G,2 G,2 [A,C]4 | [G,=B,]8 :: x8 | x8 | x8 | x8 | x8 | x8 | %14
 =E2 DC D2 D2 | D2 C2 B,2 A,2 | x8 | x8 | x8 | x8 | x8 | [DG]4 G2 F2 | x8 :| %23
V:6
 x8 | x8 | x8 | x8 | x8 | x8 | x8 | x8 :: x8 | x8 | x8 | x8 | E,,8 | x8 | x8 | x8 | x8 | x8 | x8 | %19
 x8 | x8 | x8 | x8 :| %23

